X:1
T:Title
L:1/8
M:4/4
I:linebreak $
K:A
V:1 treble nm="Voice"
V:1
"A7" efge a2 gf | eagf edcd | efge a2 gf | eagf edcA |1"E" BAGB"A" A3 e :|2"E" BAGB"A" A3 B |: %6
"A" c2 c2"E" B3 B | BABc dcBA |"A" c2 c2"E" B3 c | BAGB"A" A2 EE |[M:2/4] EF AB :| %11
[M:4/4]"A" c2 c2"E" B3 B | BABc dcBA |"A" c2 c2"E" B3 c | BAGB"A" A3 e |] %15
